X: 511
T: Jiefu huan xiaoyi
%%abc-version 2.0
%%abcx-abcm2ps-target-version 5.9.1 (29 Sep 2008)
%%abc-creator hum2abc beta
%%abcx-conversion-date 2013/10/02 07:52:30
%%abc-edited-by Helmut Schaffrath
%%humdrum-veritas 2890020334
%%humdrum-veritas-data 3731132001
%%continueall 1
%%barnumbers 0
L: 1/8
M: 2/4
K: F
c f d c [I:setbarnb 1]| 
f dc2 | 
f A c G | 
F4 | 
c c d f | 
c F G A | 
G D F G | 
C4 |]  



